X:1
T:What Will Do with Jesus?
T:George Coles Stebbins
T:What Will Do with Jesus?
T:Public Domain
T:Public Domain
C:George Coles Stebbins
Z:Public Domain
%%score ( 1 2 ) ( 3 4 )
L:1/8
M:6/8
K:Eb
V:1 treble 
V:2 treble 
V:3 bass 
V:4 bass 
V:1
 (G/A/) | [EB][E=A][EB] [Ge]2 [Ac] | [GB]3 [EG]2 [EG] | [GB]2 [FA] ([FA][EG])[DF] | %4
w: 1.~Oh, *|will you do with Je-|sus? The call|comes loud and * sweet;|
w: 2.~Oh, *|will you do with Je-|sus? The call|comes loud and * clear;|
w: 3.~Oh, *|of the King of Glo-|ry From heav’n|to earth come * down,|
 [EG]3- [EG]2 (G/A/) | (B=A)[EB] [Ge]2 [Ac] | [GB]3 [EG]2 [EG] | [EB]2 [EA] ([DA][DG])[DF] | %8
w: As * ten- *|ly * He bids you|bur- dens lay~at|His feet; Oh, * soul|
w: The * sol- *|words * are sound- ing|ev- ’ry list-|’ning ear; Im- * mor-|
w: His * life *|pure * and ho- ly,|death, His cross,|His crown; Of * His|
 E3- E2 [EG] | [EG]2 [DF] ([DF][EG])[FA] | [Ac]3 [GB]2 [GB] | ([FB][F=A])[FB] [Fd]2 [Ec] | %12
w: so * sad|wear- y, That * sweet|voice speaks to|thee; * * * *|
w: tal * life’s|quest- ion, And * joy~through|e- ter- ni-|ty; * Then what you|
w: di- * vine|pas- sion, His * sac-|ri- fice for|thee; * * * *|
 [DB]3- [DB]2 ||"^Refrain" [DA] | [EG][EG][EG] [EB]2 E | (c2 d) [Ee]2 [Ec] | %16
w: ||||
w: will *|do|with Je- sus? Oh, what|the * an- swer|
w: ||||
 [EB][EA][EG] [EG]2 [DF] | E3- E2 z |] %18
w: ||
w: ||
w: ||
V:2
 E | x6 | x6 | x6 | x5 E | E2 x4 | x6 | x6 | E3- E2 x | x6 | x6 | x6 | x5 || x | x5 E | E3 x3 | %16
w: what||||der-|Your|||and *||||||||
w: what||||emn|In|||the *||||||shall|be?|
w: think||||so|His|||com- *||||||||
 x6 | E3- E2 x |] %18
w: ||
w: ||
w: ||
V:3
 (E,/F,/) | [E,G,][E,^F,][E,G,] [E,B,]2 [E,E] | [E,E]3 [E,B,]2 [E,B,] | %3
 [B,,B,]2 [B,,B,] [B,,B,]2 [B,,B,] | [E,B,]3- [E,B,]2 (E,/F,/) | (G,^F,)[E,G,] [E,B,]2 [E,E] | %6
 [E,E]3 [E,B,]2 [E,B,] | [B,,G,]2 [B,,C] [B,,C][B,,B,][B,,A,] | [E,G,]3- [E,G,]2 [E,B,] | %9
 [B,,B,]2 [B,,B,] [B,,B,]2 [B,,D] | [E,E]3 [E,E]2 [E,C] | [F,D][F,C][F,D] [F,B,]2 [F,=A,] | %12
 [B,,B,]3- [B,,B,]2 || [B,,B,] | [E,B,][E,B,][E,B,] [E,G,]2 [E,G,] | A,2 B, [A,,C]2 [A,,A,] | %16
 [B,,G,][B,,C][B,,B,] [B,,B,]2 [B,,A,] | [E,G,]3- [E,G,]2 z |] %18
V:4
 E, | x6 | x6 | x6 | x5 E, | E,2 x4 | x6 | x6 | x6 | x6 | x6 | x6 | x5 || x | x6 | A,,3 x3 | x6 | %17
 x6 |] %18

